X:1
T:James Gibb editions
T:The Annunciation - Barnby
T:#
%%score ( 1 2 ) ( 3 4 ) { ( 5 6 ) | ( 7 8 ) }
L:1/8
Q:1/4=132
M:2/2
K:C
V:1 treble nm="Midi_74"
V:2 treble 
V:3 bass nm="Midi_74"
V:4 bass 
V:5 treble nm="Midi_20"
V:6 treble 
V:7 bass 
V:8 bass 
V:1
"^allegro""^Angela Goetze""^Joseph Barnby\n(1838-96)""^The Annunciation" z8 | z8 | z8 | z8 || %4
w: ||||
!mf! A2 A2 G2 A2 | F4 E4 | A2 A2 B2 E2 | c8 | c2 c2 e2!<(! e2!<)! |!>(! d4 c4!>)! | B2 A2 G2 F2 | %11
w: Ma- ry sat at|e- ven|In her gar- den's|shade,|And the eve- ning|sun- light|Round a- bout her|
 E8 | B3 ^G G2 B2 | d4 B4 | c2 Bc d2 cd | e8 | e3 e d2 c2 | B4 A4 | %18
w: played.|Sud- den- ly from|hea- ven|Came an * an- gel *|fair,|To her thres- hold|fly- ing,|
"^rall."[Q:1/4=130] E2[Q:1/4=127] A2[Q:1/4=124] !wedge!A2[Q:1/4=121] !wedge!^G2 |[Q:1/4=120] A8 || %20
w: Halt- ing gen- tly|there.|
"^a tempo"!p![Q:1/4=132] A2 A2 z2 AA |"^1" G4 A2 AA | d4 c4 | A8 | f3 f e2 d2 | .c2 .B2 z2 B2 | %26
w: Ma- ry, pale and|trem- bling, To the|an- gel|said:|"What can be thy|mes- sage To|
 c4 c3 A | ^G8 || z8 | z8 |[M:2/2] z8 | z8 | z8 | z8 | z8 | z8 |[M:2/2]!f! f2 f2 e2 d2 | %37
w: me, Ma- ry,|maid?"||||||||||
 (c3 _B) A4 | d2 d2 c2 _B2 | A8 | _B2 B2 A2 ^G2 | e4[Q:1/4=127] A4 | %42
w: |Thou shalt bear a|Son,|And the Lord shall|give Him|
"^rall."[Q:1/4=121] E2[Q:1/4=118] A2[Q:1/4=114] A2[Q:1/4=110] ^G2 | %43
w: Fa- ther Da- vid's|
[Q:1/4=110][Q:1/4=102][Q:1/4=110][Q:1/4=110] !fermata!A8 ||"^slower"!p![Q:1/4=96] A2 A2 G2 A2 | %45
w: throne,"|Ma- ry knelt at|
 F4 E4 | A2 A2 B2 E2 | c8 |"^cresc." c2 c2 e2 e2 |[Q:1/4=96][Q:1/4=96][Q:1/4=96] d4 c4 | %50
w: e- ven,|Pray- ing to the|Lord,|"Be it to me,|Fa- ther,|
"^cresc." d2 d2 f2 f2 | (e2 d2) c2"^dim." B2 | A4 A4 | A4!pp! ^G4 | !fermata!A8 |] %55
w: be it to me,|Fa\- * ther, Ac-|cord- ing|to Thy|word."|
V:2
 x4 x4 | x4 x4 | x4 x4 | x4 x4 || E2 E2 E2 E2 | D4 C4 | E2 C2 F2 E2 | E8 | A2 A2 G2 G2 | F4 E4 | %10
w: ||||||||||
 E2 E2 E2 D2 | B,8 | E3 E E2 E2 | F4 E4 | E2 E2 F2 F2 | E8 | G3 G G2 E2 | E4 C4 | E2 CD E2 E2 | %19
w: |||||||||
 E8 || F2 F2 z2 FF | E4 F2 FF | F4 E4 | F8 | x8 | x8 | x8 | x8 || x4 x4 | x4 x4 |[M:2/2] x8 | x8 | %32
w: |||||||||||||
 x8 | x8 | x8 | x8 |[M:2/2] _B2 B2 B2 B2 | G4 F4 | E2 E2 F2 G2 | A8 | F2 F2 E2 E2 | E4 F4 | %42
w: ||||Bless- ed a\-mong *|wo- men,|||||
 E2 E2 E2 E2 | E8 || F2 F2 E2 E2 | D4 C4 | C2 C2 F2 E2 | E8 | A2 A2 G2 G2 | F4 E4 | G2 G2 A2 A2 | %51
w: |||||||||
 ^G4 A2 F2 | E4 E4 | E4 B,4 | ^C8 |] %55
w: ||||
V:3
 z8 | z8 | z8 | z8 ||!mf! C2 C2 B,2 C2 | A,4 A,4 | A,2 A,2 A,2 ^G,2 | A,8 | C2 C2 C2 B,2 | %9
w: |||||||||
 A,4 A,4 | G,2 C2 C2 A,2 | ^G,8 |!f! ^G,3 B, B,2 G,2 | A,4 ^G,4 | A,2 C2 B,2 B,2 | C8 | %16
w: |||||||
 C3 C B,2 A,2 | G,4 F,4 | A,2 A,B, C2 D2 | C8 ||!p! C2 C2 z2 CC | C4 C2 CC | G,4 C4 | C8 | z8 | %25
w: |||||||||
 z8 | z8 | z8 ||!mf! x8 | x8 | E,2 E,2 A,2 G,2 | E,8 | E,2 E,2 C,2 D,2 | (E,3- F,) E,4 | %34
w: |||||"Hear- ken un- to|me.|Thou that art a|maid\- * en,|
"^cresc." A,2 A,2 G,2!<(! G,2 | C,8!<)! |!f! D2 D2 E2 F2 | E4 F4 | _B,2 B,2 A,2 G,2 | C8 | %40
w: Shalt a mo- ther|be!|||||
 _B,2 D2 C2 =B,2 | A,4 (A,2 B,2) | C2 C2 B,2 B,2 | C8 ||!p! C2 C2 C2 C2 | A,4 A,4 | %46
w: ||||||
 C2 A,2 A,2 ^G,2 | A,8 | C2 C2 C2 B,2 | (A,2 B,2) C4 | B,2 B,2 D2 C2 | B,4 A,2 D2 | ^C4 =C4 | %53
w: |||||||
 B,4!pp! E,4 | !fermata!E,8 |] %55
w: ||
V:4
 x4 x4 | x4 x4 | x4 x4 | x4 x4 || A,,2 A,,2 E,2 C,2 | D,4 A,,4 | C,2 F,2 D,2 E,2 | A,8 | %8
w: ||||||||
 F,2 F,2 C,2 C,2 | D,4 A,,4 | E,2 A,,2 C,2 D,2 | E,8 | E,3 E, E,2 E,2 | B,,4 E,4 | %14
w: ||||||
 A,2 A,2 G,2 G,2 | C,8 | C3 C G,2 A,2 | E,4 F,4 | C,2 F,2 !wedge!E,2 !wedge!E,2 | A,,8 || %20
w: ||||||
 F,2 F,2 z2 F,F, | C,4 F,2 F,F, | _B,,4 C,4 | F,8 | x4 x4 | x4 x4 | x4 x4 | x4 x4 || %28
w: ||||||||
 E,3 E, C,2 D,2 | (E,3 F,) E,4 | x8 | x8 | x8 | x8 | x8 | x8 | C,2 C,2 C,2 C,2 | C,4 C,4 | %38
w: And the an- gel|an\- * swered:~:|||||||||
 C,2 C,2 D,2 E,2 | F,8 | D,2 D,2 E,2 D,2 | C,4 D,4 | E,2 E,2 E,2 E,2 | !fermata!A,8 || %44
w: ||||||
 F,2 F,2 C,2 A,,2 | D,4 A,,4 | A,2 F,2 D,2 E,2 | A,8 | F,2 F,2 C,2 C,2 | G,4 A,4 | %50
w: ||||||
 G,2 G,2 D,2 D,2 | E,4 F,2 D,2 | E,4 E,4 | E,4 E,4 | A,,8 |] %55
w: |||||
V:5
"^allegro" (A4 G2 A2 | F2 E2 C2"^dim." D2 | E4!p! [^G,B,E]4) | [A,CE]6 z2 || %4
!mf! [CEA]2 [CEA]2 [B,EG]2 [CEA]2 | [A,DF]4 [A,CE]4 | [EA]2 [CA]2 [FB]2 E2 | c8 | %8
!<(! [Ac]2 [Ac]2 [Ge]2!<)! [Ge]2 |!>(! [Fd]4 [Ec]4!>)! | [EB]2 [CEA]2 [CEG]2 [DF]2 | E8 | %12
!f! [EB]3 [E^G] [EG]2 [EB]2 | [Fd]4 [EB]4 | c2 Bc d2 cd | e8 | [Ge]3 [Ge] [Gd]2 [Ec]2 | %17
 [EB]4 [CA]4 |"^rall." E2 A2 !wedge![CEA]2 !wedge![DE^G]2 | [CA]8 ||!p! [CFA]2 [CFA]2 z2 [CFA]2 | %21
 [CEG]4 [CFA]2 [CFA]2 | [Fd]4 [Ec]4 | A8 | f4 e2 d2 | c2 B2 z2 B2 | [^Fc]4 c3 A | ^G8 ||!mf! z8 | %29
 z8 | z8 | z8 | [E^GB]4 [EAc]4 | [EB]8 |"^cresc." [EAc]4 [_Bd]4 | [_Be]8 | f2 f2 e2 d2 | c3 _B A4 | %38
 d2 [Ed]2 [Fc]2 [G_B]2 | A8 | [_B,F_B]2 [DFB]2 [CEA]2 [=B,E^G]2 | [Ee]4 [FA]4 | %42
 E2 [CEA]2 [B,EA]2 [B,E^G]2 | !fermata![EA]8 ||!p!"^slower" [CFA]2 [CFA]2 [CEG]2 [CEA]2 | %45
 [A,DF]4 [A,CE]4 | [CEA]2 [CA]2 [FB]2 E2 | [Ec]8 | [Ac]2 [Ac]2 [Ge]2 [Ge]2 | [Fd]4 [Ec]4 | %50
 [Gd]2 [Gd]2 [Af]2 [Af]2 | e2 d2 [Ac]2"^dim." [DFB]2 | [^CEA]4 [=CEA]4 | [B,EA]4!pp! [B,E^G]4 | %54
 !fermata!A8 |] %55
V:6
 x8 | x8 | x8 | x8 || x8 | x8 | x4 x2 E2 | E8 | x4 x4 | x4 x4 | x4 x4 | B,8 | x4 x4 | x4 x4 | %14
 E2 E2 F2 F2 | E8 | x4 x4 | x4 x4 | E2 CD x4 | E8 || x4 x4 | x4 x4 | x4 x4 | F8 | [FA]8- | [FA]8 | %26
 x4 ^F4 | E8 || x4 x4 | x4 x4 | x4 x4 | x4 x4 | x4 x4 | ^G8 | x4 G2!<(! F2 | E8!<)! | _B8 | %37
 [EG]4 F4 | E2 x2 x4 | C8 | x4 x4 | x4 x4 | x2 x2 x4 | C8 || x4 x4 | x4 x4 | x4 x4 | x8 | x4 x4 | %49
 x4 x4 | x4 x4 | ^G4 x4 | x4 x4 | x4 x4 | [^CE]8 |] %55
V:7
!f! (A,4 G,2 A,2 | F,2 E,2 C,2 D,2 | E,4 E,4) | E,6 z2 || A,,2 A,,2 E,2 C,2 | D,4 A,,4 | %6
 A,2 A,2 A,2 ^G,2 | A,8 | C2 C2 C2 B,2 | A,4 A,4 | G,2 A,,2 C,2 A,2 | ^G,8 | ^G,3 B, B,2 G,2 | %13
 A,4 ^G,4 | A,2 C2 B,2 B,2 | C8 | C3 C B,2 A,2 | G,4 F,4 | A,2 A,B, !wedge!E,2 !wedge!E,2 | A,,8 || %20
"^a tempo" F,2 F,2 z2 F,2 | C,4 F,2 F,2 | G,4 C4 | C8 | !courtesy!=B,8- | B,8 | A,4 A,3 C | B,8 || %28
 E,4 C,2 D,2 | E,3 F, E,4 | E,2 E,2 A,2 G,2 | E,8 | E,2 E,2 C,2 D,2 | E,3 F, E,4 | %34
 A,2 A,2 G,2 G,2 | C,8 |!f!"^Ped." D4 E2 F2 | x4 x4 | _B,2 B,2"^1" A,2 G,2 | F,8 | %40
 D,2 D,2 E,2 D,2 | A,4 A,2 B,2 | C2 E,2 E,2 E,2 | !fermata!A,8 || F,2 F,2 C,2 A,,2 | D,4 A,,4 | %46
 A,2 A,2 A,2 ^G,2 | A,8 |"^cresc." C2 C2 C2 B,2 | A,2 B,2 C4 |"^cresc." B,2 B,2 D2 C2 | %51
 B,4 [F,A,]2 D,2 | E,4 E,4 | E,4!pp! E,4 | E,8 |] %55
V:8
 x4 x4 | x4 x4 | x4 E,,4 | A,,6 z2 || x4 x4 | x4 x4 | C,2 F,2 D,2 E,2 | A,8 | F,2 F,2 C,2 C,2 | %9
 D,4 A,,4 | E,2 x2 x2 D,2 | E,8 | E,3 E, E,2 E,2 | B,,4 E,4 | A,2 A,2 G,2 G,2 | C,8 | %16
 C3 C G,2 A,2 | E,4 F,4 | C,2 F,2 x4 | x4 x4 || x4 x4 | x4 x4 | _B,,4 C,4 | F,8 | D,8- | D,8 | %26
 ^D,4 D,4 | E,8 || x4 x4 | x4 x4 | x8 | x8 | x8 | x8 | x8 | x8 | C,8- | C,8 | C,2 C,2 D,2 E,2 | %39
 x4 x4 | x4 x4 | C,4 D,4 | E,2 x2 x4 | x4 x4 || x4 x4 | x4 x4 | x2 F,2 D,2 E,2 | A,8 | %48
 F,2 F,2 C,2 C,2 | G,4 A,4 | G,2 G,2 D,2 D,2 | E,6 x2 | x4 x4 | x4 E,,4 | !fermata!A,,8 |] %55

